!!! OTL: Berkowitz282
!!! Chapter: 1
!!! Section: II
!!! Page: 67
!!! Mode: 
!!! Encoder: DJB
**kern
*staff1
*I"Piano
=1-
*clefG2
*k[]
*G:
*M4/4
4r
4r
4r
4g/
=2
4a/
4g/
4f/
4g/
=3
4cc\
4dd\
4cc\
4cc\
=4
4g/
4b\
4cc\
4dd\
=5
2ee\
4dd\
4dd\
=6
8ee\L
8dd\J
4cc\
4a/
4g/
=7
4b\
4cc\
4dd\
4g/
=8
4cc\
4a/
4f/
4g/
=9
2a/
4g/
4r
==
*-
